logos/tauri.svg

<?xml version="1.0" encoding="UTF-8"?>
<svg width="256px" height="289px" viewBox="0 0 256 289" version="1.1" xmlns="http://www.w3.org/2000/svg" xmlns:xlink="http://www.w3.org/1999/xlink" preserveAspectRatio="xMidYMid">
    <title>tauri</title>
    <g>
        <path d="M178.496537,104.930808 C178.496537,120.084789 166.211808,132.369518 151.057827,132.369518 C135.903846,132.369518 123.619117,120.084789 123.619117,104.930808 C123.619117,89.7768271 135.903846,77.4920982 151.057827,77.4920982 C166.211808,77.4920982 178.496537,89.7768271 178.496537,104.930808 L178.496537,104.930808 Z" fill="#FFC131"></path>
        <circle fill="#24C8DB" transform="translate(104.910905, 183.505296) rotate(180.000000) translate(-104.910905, -183.505296) " cx="104.910905" cy="183.505296" r="27.43871"></circle>
        <path d="M207.930789,192.859402 C196.903242,199.988468 184.633759,204.980878 171.761581,207.576528 C175.492052,196.940829 176.729513,185.590328 175.378501,174.400633 C205.331921,163.929437 225.19973,135.436855 224.670689,103.710314 C224.141649,71.9837732 203.334922,44.1694396 173.049037,34.7027353 C142.763153,25.2360309 109.81978,36.2492602 91.3162718,62.0266434 C77.3552077,63.5974626 63.76947,67.5634855 51.1559781,73.7504559 C64.8599422,29.5355208 105.956668,-0.445123293 152.244425,0.00500014704 C198.532183,0.455123587 239.038101,31.2293093 251.879622,75.7023849 C264.721143,120.17546 246.854085,167.804739 207.930789,192.859402 L207.930789,192.859402 Z M52.4031922,92.8328315 L78.0958024,95.9508667 C78.6785818,90.9892674 79.7651054,86.0999113 81.3385591,81.3584618 C71.1758781,83.7210695 61.4231351,87.5885365 52.4031922,92.8328315 L52.4031922,92.8328315 Z" fill="#FFC131"></path>
        <path d="M47.9132215,95.5767025 C59.0070613,88.3748885 71.3642836,83.3388972 84.3318729,80.7348548 C80.4092975,91.3689001 79.0006191,102.766389 80.2160664,114.035471 C50.3687066,124.653897 30.6674546,153.183397 31.3099018,184.856778 C31.9523489,216.53016 52.7942769,244.237302 83.0476678,253.636674 C113.301059,263.036046 146.174554,252.017653 164.65246,226.284739 C178.605962,224.753189 192.191364,220.829455 204.812754,214.685648 C191.075002,258.852536 149.999038,288.783905 103.747182,288.330443 C57.4953265,287.87698 17.0141083,257.146007 4.14495666,212.71826 C-8.72419499,168.290513 9.06449061,120.680804 47.9132215,95.5767025 L47.9132215,95.5767025 Z M203.440819,195.603273 L202.941933,195.852715 L203.440819,195.603273 Z" fill="#24C8DB"></path>
    </g>
</svg>

<svg width="256" height="289" xmlns="http://www.w3.org/2000/svg" preserveAspectRatio="xMidYMid">
	<path d="M178.497 104.93c0 15.155-12.285 27.44-27.44 27.44-15.153 0-27.438-12.285-27.438-27.44 0-15.153 12.285-27.438 27.439-27.438s27.439 12.285 27.439 27.439Z" fill="#FFC131"/>
	<circle fill="#24C8DB" transform="rotate(180 104.91 183.505)" cx="104.911" cy="183.505" r="27.439"/>
	<path d="M207.93 192.86a104.766 104.766 0 0 1-36.168 14.717 73.586 73.586 0 0 0 3.617-33.176c29.953-10.472 49.82-38.964 49.292-70.69-.53-31.727-21.336-59.542-51.622-69.008-30.286-9.467-63.23 1.546-81.733 27.324a122.227 122.227 0 0 0-40.16 11.723C64.86 29.536 105.956-.445 152.244.005c46.288.45 86.794 31.224 99.636 75.697 12.841 44.473-5.026 92.103-43.95 117.157ZM52.404 92.832l25.693 3.118a73.586 73.586 0 0 1 3.243-14.593 104.766 104.766 0 0 0-28.936 11.475Z" fill="#FFC131"/>
	<path d="M47.913 95.577a104.766 104.766 0 0 1 36.419-14.842 73.46 73.46 0 0 0-4.116 33.3c-29.847 10.619-49.549 39.148-48.906 70.822.642 31.673 21.484 59.38 51.738 68.78 30.253 9.399 63.127-1.62 81.604-27.352a122.227 122.227 0 0 0 40.16-11.6C191.076 258.854 150 288.785 103.748 288.33c-46.252-.453-86.733-31.184-99.602-75.612-12.87-44.427 4.92-92.037 43.768-117.141Zm155.528 100.026-.5.25.5-.25Z" fill="#24C8DB"/>
</svg>
